X:1
T:Our Loved Ones in Heaven
T:Our Loved Ones in Heaven
T:Lessue
T:John William Dadmun, 1866
T:Public Domain Courtesy of the Cyber Hymnal™
T:Public Domain Courtesy of the Cyber Hymnal™
C:Lessue
Z:Public Domain
Z:Courtesy of the Cyber Hymnal™
%%score ( 1 2 ) ( 3 4 )
L:1/8
Q:1/4=100
M:4/4
K:Eb
V:1 treble 
V:2 treble 
V:3 bass 
V:4 bass 
V:1
 [EG]2 [EG]>[EF] E>[EF] [EG]>[FA] | [GB]4 [EG]2 z2 | [EG]2 [EG]>F [EG]>[EB] [EB]>[EG] | [DF]4 z4 | %4
w: 1.~Come, all ye saints, to Pis- gah’s|mount- ain,|Come view your home be- yond the|tide;|
w: 2.~There end- less springs of life are|flow- ing,|There are the fields of liv- ing|green;|
w: 3.~Faith now be- holds the flow- ing|riv- er,|Com- ing from un- der- neath the|throne;|
 [EG]2 [EG]>[EF] E>[EF] [EG]>[FA] | [GB]2 !>![Ac]4 ([EG][FA]) | [GB]2 [FA][EG] [EG]2 [DF]2 | %7
w: Hear now the voic- es of your|loved ones, What *|they sing on the other|
w: Man- sions of beau- ty are pro-|vid- ed, And *|the King of saints is|
w: There, too, the Sav- ior reigns for-|ev- er, And *|He’ll wel- come the faith-|
 E4 z2 |S (3([DB][Ec])[Fd] | [Ge]2 [Ge]>[Ge] [Bd]2 [Ac]>[Ac] | [GB]4 [EG]2 E>[EF] | %11
w: side—|Some * of|bright crowns of glo- ry are|sing- ing, Some of|
w: seen.|Soon * my|con- flict and toils will be|end- ed; I shall|
w: ful|home. * Would|you sit by the banks of|the riv- er With|
 [EG]2 [EG]>F [EG]2 [EB]>[EG] | [DF]4 z2 | (3([DB][Ec])[Fd] | [Ge]2 [Ge]>[Ge] [Bd]2 [Ac]>[Ac] | %15
w: dear ones who stand near the|shore,|For * the|fond heart must ev- er be|
w: join those who’ve passed on be-|fore;|For * my|loved ones, O how do I|
w: the friends you have loved by|your|side? * Would|you join the song of the|
 [GB]4 [EG]2 E>[EF] | [EG]2 [EG]>[EF] [EG]2 [DF]>[DF] | E6!D.S.! |] %18
w: cling- ing To the|faith- ful we love ev- er-|more.|
w: miss them! I must|press on and meet them once|more.|
w: an- gels? Then be|rea- dy to fol- low your|guide.|
V:2
 x4 E3/2 x5/2 | x8 | x7/2 F/ x4 | x8 | x4 E3/2 x5/2 | x8 | x8 | E4 x2 | x2 | x8 | x6 E3/2 x/ | %11
 x7/2 F/ x4 | x6 | x2 | x8 | x6 E3/2 x/ | x8 | E6 |] %18
V:3
 [E,B,]2 [E,B,]>[E,A,] [E,G,]>[E,A,] [E,B,]>[E,B,] | [E,E]4 [E,B,]2 z2 | %2
w: ~ ~ ~ ~ ~ ~ ~|~ ~|
 [E,B,]2 [E,B,]>[D,B,] [E,B,]>[E,G,] [E,G,]>[E,B,] | [B,,B,]4 z4 | %4
w: ~ ~ ~ ~ ~ ~ ~|~|
 [E,B,]2 [E,B,]>[E,A,] [E,G,]>[E,A,] [E,B,]>[E,B,] | [E,E]2 !>![A,,E]4 ([E,B,][E,B,]) | %6
w: ~ ~ ~ ~ ~ ~ ~|~ ~ ~ *|
 [E,B,]2 [D,B,][E,B,] [B,,B,]2 [B,,B,]2 | [E,G,]4 z2 | [B,,B,][B,,B,] | %9
w: ~ ~ ~ ~ ~|~|DS—O the|
 [E,B,]2 [E,B,]>[E,B,] [E,E]2 [E,E]>[E,E] | [E,E]4 [E,B,]2 [E,G,]>[E,B,] | %11
w: pros- pect it is so trans-|port- ing And no|
 [E,B,]2 [E,B,]>[D,B,] [E,B,]2 [E,G,]>[E,B,] | [B,,B,]4 z2 | [B,,B,][B,,B,] | %14
w: dan- ger I fear from the|tide;|Let me|
 [E,B,]2 [E,B,]>[E,B,] [E,F]2 [E,F]>[E,F] | [E,F]4 [E,B,]2 [E,G,]>[E,A,] | %16
w: go to the home of the|Chris- tian, Let me|
 [E,B,]2 [E,B,]>[A,C] B,2 [B,,A,]>[B,,A,] | [E,G,]6 |] %18
w: stand robed in white by His|side.|
V:4
 x8 | x8 | x8 | x8 | x8 | x8 | x8 | x6 | x2 | x8 | x8 | x8 | x6 | x2 | x8 | x8 | x4 B,2 x2 | x6 |] %18

